inpromtek/img/svg/decor.svg

<svg width="468" height="260" viewBox="0 0 468 260" fill="none" xmlns="http://www.w3.org/2000/svg">
<path d="M57.541 51.2828C38.9214 61.1519 15.0347 85.2508 7.07695 99.216L7.03118 99.3779C5.29393 105.525 0.219632 123.478 5.12626 142.33C11.3144 166.105 32.2881 197.635 56.0775 230.619C79.8669 263.602 121.423 259.947 145.405 248.101C169.387 236.255 245.753 210.278 297.197 212.98C348.642 215.682 400.672 214.294 433.754 205.262C466.836 196.229 467.313 162.089 463.914 138.749C460.514 115.409 385.921 51.6906 359.628 28.9612C333.335 6.23179 291.466 24.1579 254.725 26.1568C217.984 28.1558 187.679 11.1365 158.447 8.3508C129.215 5.56511 80.8156 38.9464 57.541 51.2828Z" fill="#F0F5F8"/>
</svg>

<svg width="468" height="260" fill="none" xmlns="http://www.w3.org/2000/svg"><path d="M57.541 51.283C38.921 61.152 15.035 85.25 7.077 99.216l-.046.162c-1.737 6.147-6.811 24.1-1.905 42.952 6.188 23.775 27.162 55.305 50.951 88.289 23.79 32.983 65.346 29.328 89.328 17.482s100.348-37.823 151.792-35.121c51.445 2.702 103.475 1.314 136.557-7.718 33.082-9.033 33.559-43.173 30.16-66.513-3.4-23.34-77.993-87.058-104.286-109.788-26.293-22.73-68.162-4.803-104.903-2.804s-67.046-15.02-96.278-17.806C129.215 5.565 80.816 38.946 57.541 51.283z" fill="#F0F5F8"/></svg>
